Adwaita++/apps/scalable/gnome-robots.svg

<svg enable-background="new" height="128" viewBox="0 0 128 128" width="128" xmlns="http://www.w3.org/2000/svg">
  <g transform="translate(.000062 -173)">
    <path d="m120.73438 83.333984h-113.4570362a59.999995 59.999995 0 0 0 56.7226562 40.666016 59.999995 59.999995 0 0 0 56.73438-40.666016z" fill="#deddda" transform="translate(-.000062 173)"/>
    <path d="m64 4a59.999995 59.999995 0 0 0 -55.2109375 36.525391h110.3574175a59.999995 59.999995 0 0 0 -55.14648-36.525391z" fill="#deddda" transform="translate(-.000062 173)"/>
    <path d="m116.63275 257.06377h-105.265624c7.768062 20.98236 28.311822 35.93623 52.632812 35.93623s44.864752-14.95387 52.632812-35.93623z" fill="#d5d3cf"/>
    <path d="m64 6c-23.295092 0-43.176609 14.084081-51.638672 34.234375h103.277342c-8.46206-20.150294-28.343578-34.234375-51.63867-34.234375z" fill="#d5d3cf" transform="translate(-.000062 173)"/>
    <circle cx="64" cy="235" fill="#3d3846" r="54"/>
    <path d="m63.999938 177a59.999995 59.999995 0 0 0 -55.9531249 38.52539h111.9648469a59.999995 59.999995 0 0 0 -56.011722-38.52539z" fill="#0f0b00" opacity=".2"/>
    <path d="m64.000045 181a54 54 0 0 0 -54 54 54 54 0 0 0 .0415 1.1709 54 54 0 0 1 53.9585-53.1709 54 54 0 0 1 53.958495 52.82813 54 54 0 0 0 .0415-.82813 54 54 0 0 0 -54.000005-54z" opacity=".1"/>
    <g fill="#f6f5f4" transform="translate(-.000062 173)">
      <path d="m64 2a59.999995 59.999995 0 0 0 -55.953125 38.525391h111.964845a59.999995 59.999995 0 0 0 -56.01172-38.525391z"/>
      <path d="m120.00586 83.333984h-112.0625006a59.999995 59.999995 0 0 0 56.0566406 38.666016 59.999995 59.999995 0 0 0 56.00586-38.666016z"/>
    </g>
  </g>
  <path d="m-120.84025 6.5293449c-27.22953 0-49.99431 18.0230371-57.33571 42.8070221h114.675714c-7.34568-24.783985-30.11045-42.8070221-57.340004-42.8070221zm-57.33571 77.0526341c7.3444 24.785261 30.10832 42.807011 57.33571 42.807011 27.229554 0 49.994324-18.02175 57.340004-42.807011h-114.679994z" fill="#e4e4e4"/>
  <circle cx="63.84" cy="64.07" opacity=".2" r="12.842"/>
  <circle cx="63.84" cy="61.93" fill="#e01b24" r="12.842"/>
  <circle cx="93.804" cy="64.07" opacity=".2" r="12.842"/>
  <circle cx="93.804" cy="61.93" fill="#e01b24" r="12.842"/>
  <circle cx="33.87" cy="64.07" opacity=".2" r="12.842"/>
  <circle cx="33.87" cy="61.93" fill="#e01b24" r="12.842"/>
</svg>

<svg xmlns="http://www.w3.org/2000/svg" xmlns:xlink="http://www.w3.org/1999/xlink" style="enable-background:new" width="128" height="128" version="1.0" viewBox="0 0 128 128">
 <title id="title4162">
  Adwaita Icon Template
 </title>
 <defs>
  <linearGradient id="linearGradient950">
   <stop style="stop-color:#9a9996" id="stop946" offset="0"/>
   <stop style="stop-color:#77767b" id="stop948" offset="1"/>
  </linearGradient>
  <linearGradient id="linearGradient1001" x1="1660.857" x2="1662.99" y1="806.297" y2="812.882" gradientTransform="matrix(1.8293937,-0.81599442,0.81599442,1.8293937,-3645.9624,100.02949)" gradientUnits="userSpaceOnUse" xlink:href="#linearGradient950"/>
  <clipPath id="clipPath5154" clipPathUnits="userSpaceOnUse">
   <circle cx="128" cy="924.362" r="109.647" style="fill:url(#radialGradient5158)"/>
  </clipPath>
  <clipPath id="clipPath977" clipPathUnits="userSpaceOnUse">
   <circle cx="128" cy="924.362" r="109.647" style="fill:url(#radialGradient5158)"/>
  </clipPath>
  <clipPath id="clipPath4688" clipPathUnits="userSpaceOnUse">
   <path d="m 106.42383,889.60156 c -2.2448,-0.0524 -4.09304,1.75264 -4.09375,3.99805 v 32.64453 32.64453 c -4e-5,3.07923 3.33305,5.004 6,3.46485 l 28.26953,-16.32227 28.27148,-16.32227 c 2.66559,-1.54001 2.66559,-5.38772 0,-6.92773 l -28.27148,-16.32227 -28.26953,-16.32226 c -0.58054,-0.3353 -1.23603,-0.51932 -1.90625,-0.53516 z" style="fill:url(#radialGradient4692);stroke:#a7003f;stroke-linecap:round;stroke-linejoin:round"/>
  </clipPath>
  <clipPath id="clipPath4564" clipPathUnits="userSpaceOnUse">
   <circle style="fill:url(#radialGradient4568)" cx="128" cy="924.362" r="109.647"/>
  </clipPath>
  <clipPath id="clipPath6215" clipPathUnits="userSpaceOnUse">
   <path d="m 105.17325,806.18572 c -3.06859,0.56361 -6.11393,1.24721 -9.129005,2.04923 -3.838255,1.06506 -7.62084,2.32142 -11.333578,3.76438 -3.712189,1.44307 -7.34989,3.07087 -10.899472,4.87732 -3.549153,1.80656 -7.005749,3.78947 -10.35684,5.94129 -3.351877,2.15253 -6.593991,4.47137 -9.714191,6.94783 -3.119992,2.47544 -6.114241,5.10535 -8.971529,7.87988 -0.367219,0.38909 -0.731819,0.78065 -1.093777,1.17464 2.60205,17.85956 16.832359,40.03752 30.863064,55.74236 -4.76734,8.84435 -7.265993,18.73329 -7.272057,28.78068 0.02104,2.87431 0.246096,5.7435 0.673482,8.58593 -20.257302,-9.18513 -43.077023,-26.53494 -52.798465,-47.36396 -0.440667,1.15171 -0.863474,2.31018 -1.268271,3.47498 -1.176789,3.80495 -2.162562,7.66637 -2.953625,11.56979 -0.79154,3.90311 -1.3874065,7.84335 -1.7853678,11.80598 -0.39733,3.96334 -0.5961891,7.94407 -0.5958321,11.92728 -4.394e-4,2.81936 0.098928,5.63785 0.2979155,8.45018 0.282275,3.97319 0.763088,7.92978 1.4406374,11.85493 0.625626,3.51826 1.408798,7.00668 2.347153,10.45473 16.778133,6.68355 43.114514,5.45001 63.748015,1.14301 6.818545,11.02763 16.987182,19.58379 29.018153,24.41667 -18.071844,12.93645 -44.490188,24.02095 -67.37308,22.03245 1.384097,1.665 2.813203,3.2921 4.285735,4.8794 2.774977,2.8571 5.691103,5.5737 8.737453,8.1395 3.046107,2.5658 6.218619,4.9777 9.505651,7.2266 3.287242,2.2488 6.684891,4.3319 10.180217,6.2413 3.495379,1.9096 7.084075,3.6433 10.752641,5.1944 3.66896,1.5509 7.413193,2.9174 11.218668,4.0942 1.438565,0.3959 2.884421,0.7648 4.336807,1.1066 14.138748,-11.1844 26.206378,-34.5828 32.780368,-54.56406 12.95816,-0.38251 25.45395,-4.90132 35.65955,-12.89544 2.15922,22.12638 -1.46693,50.5581 -14.64692,69.3832 3.06859,-0.5636 6.11393,-1.2473 9.129,-2.0493 3.83826,-1.0651 7.62084,-2.3214 11.33358,-3.7644 3.71219,-1.4431 7.34989,-3.0709 10.89947,-4.8773 3.54915,-1.8066 7.00575,-3.7895 10.35684,-5.9413 3.35188,-2.1525 6.59399,-4.4714 9.71419,-6.9478 3.11999,-2.4754 6.11424,-5.1054 8.97153,-7.8799 0.36722,-0.3891 0.73182,-0.7806 1.09378,-1.1746 -2.60204,-17.85957 -16.83236,-40.03755 -30.86307,-55.74238 4.76735,-8.84435 7.266,-18.7333 7.27207,-28.78069 -0.021,-2.8743 -0.24611,-5.74349 -0.6735,-8.58592 20.25731,9.18513 43.07704,26.53494 52.79848,47.36396 0.44067,-1.15171 0.86347,-2.31018 1.26827,-3.47499 1.17679,-3.80495 2.16256,-7.66636 2.95362,-11.56978 0.79154,-3.90311 1.38741,-7.84335 1.78537,-11.80598 0.39733,-3.96334 0.59619,-7.94408 0.59583,-11.92729 4.4e-4,-2.81936 -0.0989,-5.63784 -0.29791,-8.45017 -0.28228,-3.97319 -0.76309,-7.92978 -1.44064,-11.85493 -0.62776,-3.53416 -1.41449,-7.03823 -2.35779,-10.50154 -20.56165,-7.32804 -45.89823,-4.79548 -63.74906,-1.11372 -6.81835,-11.01918 -16.98234,-19.56874 -29.00647,-24.39915 18.07184,-12.93645 44.49019,-24.02091 67.37307,-22.03241 -1.38409,-1.66502 -2.8132,-3.2921 -4.28573,-4.87944 -2.77498,-2.85712 -5.6911,-5.57368 -8.73745,-8.13949 -3.04611,-2.56581 -6.21862,-4.97769 -9.50565,-7.22659 -3.28724,-2.24885 -6.68489,-4.3319 -10.18022,-6.24135 -3.49538,-1.90963 -7.08407,-3.64325 -10.75264,-5.19438 -3.66896,-1.55092 -7.41319,-2.91736 -11.21867,-4.09421 -1.42662,-0.39262 -2.86041,-0.75869 -4.30063,-1.09804 -14.14688,11.18369 -26.2293,34.57475 -32.8107,54.55552 -12.96018,0.38127 -25.4582,4.90015 -35.665394,12.89544 -2.15922,-22.12637 1.466931,-50.55807 14.646924,-69.38315 z" style="fill:url(#radialGradient6219)"/>
  </clipPath>
 </defs>
 <g id="layer1" transform="translate(6.19e-5,-173)">
  <g id="layer9">
   <path style="fill:#deddda" d="M 120.73438 83.333984 L 7.2773438 83.333984 A 59.999995 59.999995 0 0 0 64 124 A 59.999995 59.999995 0 0 0 120.73438 83.333984 z" transform="translate(-6.19e-5,173)"/>
   <path style="fill:#deddda" d="M 64 4 A 59.999995 59.999995 0 0 0 8.7890625 40.525391 L 119.14648 40.525391 A 59.999995 59.999995 0 0 0 64 4 z" transform="translate(-6.19e-5,173)"/>
   <path style="fill:#d5d3cf" d="M 116.63275,257.06377 H 11.367126 C 19.135188,278.04613 39.678948,293 63.999938,293 c 24.32099,0 44.864752,-14.95387 52.632812,-35.93623 z"/>
   <path style="fill:#d5d3cf" d="M 64 6 C 40.704908 6 20.823391 20.084081 12.361328 40.234375 L 115.63867 40.234375 C 107.17661 20.084081 87.295092 6 64 6 z" transform="translate(-6.19e-5,173)"/>
   <circle style="fill:#3d3846" cx="64" cy="235" r="54"/>
   <path style="opacity:0.2;fill:#0f0b00" d="M 63.999938,177 A 59.999995,59.999995 0 0 0 8.0468131,215.52539 H 120.01166 A 59.999995,59.999995 0 0 0 63.999938,177 Z"/>
   <path d="m 64.000045,181 a 54,54 0 0 0 -54,54 54,54 0 0 0 0.0415,1.1709 A 54,54 0 0 1 64.000045,183 54,54 0 0 1 117.95854,235.82813 54,54 0 0 0 118.00004,235 54,54 0 0 0 64.000035,181 Z" style="opacity:0.1"/>
   <path d="M 64 2 A 59.999995 59.999995 0 0 0 8.046875 40.525391 L 120.01172 40.525391 A 59.999995 59.999995 0 0 0 64 2 z" transform="translate(-6.19e-5,173)" style="fill:#f6f5f4"/>
   <path style="fill:#f6f5f4" d="M 120.00586 83.333984 L 7.9433594 83.333984 A 59.999995 59.999995 0 0 0 64 122 A 59.999995 59.999995 0 0 0 120.00586 83.333984 z" transform="translate(-6.19e-5,173)"/>
  </g>
 </g>
 <path style="fill:#e4e4e4" d="m -120.84025,6.5293449 c -27.22953,0 -49.99431,18.0230371 -57.33571,42.8070221 H -63.500246 C -70.845926,24.552382 -93.610696,6.5293449 -120.84025,6.5293449 Z m -57.33571,77.0526341 c 7.3444,24.785261 30.10832,42.807011 57.33571,42.807011 27.229554,0 49.994324,-18.02175 57.340004,-42.807011 H -178.18024 Z"/>
 <circle style="opacity:0.2" cx="63.84" cy="64.07" r="12.842"/>
 <circle style="fill:#e01b24" cx="63.84" cy="61.93" r="12.842"/>
 <circle style="opacity:0.2" cx="93.804" cy="64.07" r="12.842"/>
 <circle style="fill:#e01b24" cx="93.804" cy="61.93" r="12.842"/>
 <circle style="opacity:0.2" cx="33.87" cy="64.07" r="12.842"/>
 <circle style="fill:#e01b24" cx="33.87" cy="61.93" r="12.842"/>
</svg>
